X:1

T: Road to Ballinakill

S: Mike/Mary Rafferty

Q: 325

R: jig

M: 4/4

L: 1/8

K: G

A | BAB GBd | ede Gce | dBd dBG | FAF DFA |

BAB GBd | ede Gce | dBG DFA | BGG G2 :|

A | B2 d gdB | c2 e gec | B2 d gdB | Agf edc |

B2 d gdB | c2 e gec | BdB cAF | AGF G2 :|

           

ROAD TO BALLYMAC.  Irish, Reel. G Major. Standard tuning. AABB. Source for notated version: John Blessing (Treoir, 1991) [Miller]. Miller (Fiddler’s Throne), 2004; No. 242, pg. 147.

 

ROAD TO BALQUHIDDER, THE. AKA and see “Campbell of Lochnell’s Reel.” Scottish, March.

                       

ROAD TO BATOCHE, THE. Canadian, Reel. G Major (‘A’ part) & E Minor (‘B’ part). Standard tuning. Attributed to Manitoba fiddler Andy DeJarlis.

 


ROAD TO BERWICK, THE.  AKA and see "The Buck of the Cabrach [1]." Scottish, Reel. D Major. Standard tuning. AAB (Glen): AABB' (Marshall). Composed by William Marshall (1748-1833), first published in his 1781 collection (pg. 3). It was later re‑named "The Buck of the Cabrach." Glen (The Glen Collection of Scottish Dance Music), vol. 2, 1895; pg. 11. Marshall, Fiddlecase Edition, 1978; 1781 Collection, pg. 3.

